svg/color/ethup.svg

<?xml version="1.0" encoding="UTF-8" ?>
<!DOCTYPE svg PUBLIC "-//W3C//DTD SVG 1.1//EN" "http://www.w3.org/Graphics/SVG/1.1/DTD/svg11.dtd">
<svg width="250pt" height="250pt" viewBox="0 0 250 250" version="1.1" xmlns="http://www.w3.org/2000/svg">
<g id="#ffffffff">
<path fill="#ffffff" opacity="1.00" d=" M 0.00 0.00 L 124.97 0.00 C 99.41 25.65 73.73 51.17 48.20 76.85 C 57.59 86.23 66.97 95.61 76.34 105.00 C 92.73 89.01 108.75 72.64 125.00 56.51 C 141.14 72.68 157.35 88.77 173.43 105.00 C 183.16 95.91 192.31 86.20 201.83 76.88 C 178.44 53.36 154.92 29.96 131.49 6.48 C 129.34 4.41 127.21 2.30 125.30 0.00 L 250.00 0.00 L 250.00 124.98 C 240.59 115.62 231.22 106.21 221.83 96.83 C 212.24 106.07 202.96 115.63 193.50 125.01 C 202.61 134.11 211.66 143.26 220.82 152.30 C 221.71 153.60 222.78 152.22 223.49 151.56 C 232.35 142.86 240.83 133.74 250.00 125.37 L 250.00 250.00 L 125.03 250.00 C 150.60 224.34 176.30 198.80 201.84 173.11 C 192.34 163.78 183.15 154.12 173.45 145.00 C 157.35 161.21 141.15 177.32 125.00 193.49 C 108.74 177.36 92.73 160.99 76.33 145.01 C 66.96 154.39 57.55 163.74 48.16 173.11 C 73.63 198.62 99.05 224.20 124.68 249.55 L 123.90 250.00 L 0.00 250.00 L 0.00 125.02 C 9.41 134.39 18.78 143.78 28.16 153.17 C 37.77 143.95 47.04 134.37 56.50 125.00 C 47.00 115.65 37.83 105.96 28.10 96.86 C 18.90 106.20 9.50 115.35 0.34 124.75 L 0.00 123.88 L 0.00 0.00 M 96.29 125.00 C 105.84 134.59 115.42 144.15 125.00 153.71 C 134.59 144.16 144.16 134.59 153.72 125.00 C 144.16 115.41 134.59 105.84 125.00 96.29 C 115.41 105.84 105.84 115.41 96.29 125.00 Z" />
</g>
<g id="#f3ba2fff">
<path fill="#f3ba2f" opacity="1.00" d=" M 124.97 0.00 L 125.30 0.00 C 127.21 2.30 129.34 4.41 131.49 6.48 C 154.92 29.96 178.44 53.36 201.83 76.88 C 192.31 86.20 183.16 95.91 173.43 105.00 C 157.35 88.77 141.14 72.68 125.00 56.51 C 108.75 72.64 92.73 89.01 76.34 105.00 C 66.97 95.61 57.59 86.23 48.20 76.85 C 73.73 51.17 99.41 25.65 124.97 0.00 Z" />
<path fill="#f3ba2f" opacity="1.00" d=" M 0.34 124.75 C 9.50 115.35 18.90 106.20 28.10 96.86 C 37.83 105.96 47.00 115.65 56.50 125.00 C 47.04 134.37 37.77 143.95 28.16 153.17 C 18.78 143.78 9.41 134.39 0.00 125.02 L 0.00 123.88 L 0.34 124.75 Z" />
<path fill="#f3ba2f" opacity="1.00" d=" M 96.29 125.00 C 105.84 115.41 115.41 105.84 125.00 96.29 C 134.59 105.84 144.16 115.41 153.72 125.00 C 144.16 134.59 134.59 144.16 125.00 153.71 C 115.42 144.15 105.84 134.59 96.29 125.00 Z" />
<path fill="#f3ba2f" opacity="1.00" d=" M 193.50 125.01 C 202.96 115.63 212.24 106.07 221.83 96.83 C 231.22 106.21 240.59 115.62 250.00 124.98 L 250.00 125.37 C 240.83 133.74 232.35 142.86 223.49 151.56 C 222.78 152.22 221.71 153.60 220.82 152.30 C 211.66 143.26 202.61 134.11 193.50 125.01 Z" />
<path fill="#f3ba2f" opacity="1.00" d=" M 76.33 145.01 C 92.73 160.99 108.74 177.36 125.00 193.49 C 141.15 177.32 157.35 161.21 173.45 145.00 C 183.15 154.12 192.34 163.78 201.84 173.11 C 176.30 198.80 150.60 224.34 125.03 250.00 L 123.90 250.00 L 124.68 249.55 C 99.05 224.20 73.63 198.62 48.16 173.11 C 57.55 163.74 66.96 154.39 76.33 145.01 Z" />
</g>
</svg>

<?xml version="1.0" encoding="utf-8"?>
<!-- Generator: Adobe Illustrator 26.0.3, SVG Export Plug-In . SVG Version: 6.00 Build 0)  -->
<svg version="1.1" id="Layer_1" xmlns="http://www.w3.org/2000/svg" xmlns:xlink="http://www.w3.org/1999/xlink" x="0px" y="0px"
	 viewBox="0 0 250 250" style="enable-background:new 0 0 250 250;" xml:space="preserve">
<style type="text/css">
	.st0{fill:#F3BA2F;}
</style>
<g id="_x23_f3ba2fff">
	<path class="st0" d="M125,0h0.3c1.9,2.3,4,4.4,6.2,6.5c23.4,23.5,46.9,46.9,70.3,70.4c-9.5,9.3-18.7,19-28.4,28.1
		c-16.1-16.2-32.3-32.3-48.4-48.5C108.8,72.6,92.7,89,76.3,105C67,95.6,57.6,86.2,48.2,76.8C73.7,51.2,99.4,25.6,125,0z"/>
	<path class="st0" d="M0.3,124.8c9.2-9.4,18.6-18.6,27.8-27.9C37.8,106,47,115.7,56.5,125c-9.5,9.4-18.7,18.9-28.3,28.2
		C18.8,143.8,9.4,134.4,0,125v-1.1L0.3,124.8z"/>
	<path class="st0" d="M96.3,125c9.5-9.6,19.1-19.2,28.7-28.7c9.6,9.5,19.2,19.1,28.7,28.7c-9.6,9.6-19.1,19.2-28.7,28.7
		C115.4,144.1,105.8,134.6,96.3,125z"/>
	<path class="st0" d="M193.5,125c9.5-9.4,18.7-18.9,28.3-28.2c9.4,9.4,18.8,18.8,28.2,28.2v0.4c-9.2,8.4-17.6,17.5-26.5,26.2
		c-0.7,0.7-1.8,2-2.7,0.7C211.7,143.3,202.6,134.1,193.5,125z"/>
	<path class="st0" d="M76.3,145c16.4,16,32.4,32.4,48.7,48.5c16.1-16.2,32.4-32.3,48.4-48.5c9.7,9.1,18.9,18.8,28.4,28.1
		c-25.5,25.7-51.2,51.2-76.8,76.9h-1.1l0.8-0.4c-25.6-25.4-51.1-50.9-76.5-76.4C57.5,163.7,67,154.4,76.3,145z"/>
</g>
</svg>
